lending/img/svg/filter-icon.svg

<svg width="20" height="20" viewBox="0 0 20 20" fill="none" xmlns="http://www.w3.org/2000/svg">
<path fill-rule="evenodd" clip-rule="evenodd" d="M2 0H4V3.17071C5.16519 3.58254 6 4.69378 6 6C6 7.30622 5.16519 8.41746 4 8.82929V20H2V8.82929C0.834808 8.41746 0 7.30622 0 6C0 4.69378 0.834808 3.58254 2 3.17071V0ZM7 14C7 15.3062 7.83481 16.4175 9 16.8293V20H11V16.8293C12.1652 16.4175 13 15.3062 13 14C13 12.6938 12.1652 11.5825 11 11.1707V0H9V11.1707C7.83481 11.5825 7 12.6938 7 14ZM18 0H16V5.17071C14.8348 5.58254 14 6.69378 14 8C14 9.30622 14.8348 10.4175 16 10.8293V20H18V10.8293C19.1652 10.4175 20 9.30622 20 8C20 6.69378 19.1652 5.58254 18 5.17071V0ZM18 8C18 8.55228 17.5523 9 17 9C16.4477 9 16 8.55228 16 8C16 7.44772 16.4477 7 17 7C17.5523 7 18 7.44772 18 8ZM10 15C10.5523 15 11 14.5523 11 14C11 13.4477 10.5523 13 10 13C9.44772 13 9 13.4477 9 14C9 14.5523 9.44772 15 10 15ZM4 6C4 6.55228 3.55228 7 3 7C2.44772 7 2 6.55228 2 6C2 5.44772 2.44772 5 3 5C3.55228 5 4 5.44772 4 6Z" fill="#A5FF14"/>
</svg>

<svg width="20" height="20" fill="none" xmlns="http://www.w3.org/2000/svg"><path fill-rule="evenodd" clip-rule="evenodd" d="M2 0h2v3.17a3.001 3.001 0 010 5.66V20H2V8.83a3.001 3.001 0 010-5.66V0zm5 14c0 1.306.835 2.418 2 2.83V20h2v-3.17a3.001 3.001 0 000-5.66V0H9v11.17A3.001 3.001 0 007 14zM18 0h-2v5.17a3.001 3.001 0 000 5.66V20h2v-9.17a3.001 3.001 0 000-5.66V0zm0 8a1 1 0 11-2 0 1 1 0 012 0zm-8 7a1 1 0 100-2 1 1 0 000 2zM4 6a1 1 0 11-2 0 1 1 0 012 0z" fill="#A5FF14"/></svg>
